X: 5
T: The Mist On The Mountain
R: jig
M: 6/8
L: 1/8
K: Ador
G|EAA ABd|eAB AGE|G3 GAB|dBA GED|EAA ABd|eAB AGE|efg dBG|BAG A2:|a|age a2b|age edB|AGE G2A|BAB AGE|age a2b|age edB|AGE G2A|BAG A3|age a2b|age edB|AGE G2A|BAB GED|EDE G2A|B2A Bcd|efg dBG|BAG A3||


Tune 256	Setting 25788

